source/assets/images/MDGT-74x50.svg

<svg fill="none" height="50" viewBox="0 0 74 50" width="74" xmlns="http://www.w3.org/2000/svg"><path clip-rule="evenodd" d="m0 10v-8c0-1.104568.895386-2 2-2h8 18.9091c2.8116 0 5.0909 2.27928 5.0909 5.09091 0 1.60665 1.3025 2.90909 2.9091 2.90909h.1818c1.6066 0 2.9091-1.30244 2.9091-2.90909 0-2.81163 2.2793-5.09091 5.0909-5.09091h18.9091c5.5228 0 10 4.47716 10 10v15.1111c0 4.9092-3.9797 8.8889-8.8889 8.8889h-4.1111c-1.6569 0-3 1.3431-3 3s1.3431 3 3 3h8c2.7615 0 5 2.2386 5 5s-2.2385 5-5 5h-7.9091c-2.8116 0-5.0909-2.2793-5.0909-5.0909 0-1.6067-1.3025-2.9091-2.9091-2.9091h-.1818c-1.6066 0-2.9091 1.3024-2.9091 2.9091 0 2.8116-2.2793 5.0909-5.0909 5.0909h-7.8182c-2.8116 0-5.0909-2.2793-5.0909-5.0909 0-1.6067-1.3025-2.9091-2.9091-2.9091h-.1818c-1.6066 0-2.9091 1.3024-2.9091 2.9091v.0909c0 2.7614-2.2385 5-5 5s-5-2.2386-5-5v-.0909c0-1.6067-1.3025-2.9091-2.9091-2.9091h-.1818c-1.6066 0-2.9091 1.3024-2.9091 2.9091v.0909c0 2.7614-2.23853 5-5 5s-5-2.2386-5-5 2.23853-5 5-5h.09094c1.60657 0 2.90906-1.3024 2.90906-2.9091v-.0909c0-1.6569-1.34314-3-3-3h-.19995c-2.651 0-4.80005-2.149-4.80005-4.8zm10 27c0-1.6569 1.3431-3 3-3h.2c2.651 0 4.8-2.149 4.8-4.8v-.2c0-1.6569 1.3431-3 3-3s3 1.3431 3 3v.2c0 2.651 2.149 4.8 4.8 4.8h.2c1.6569 0 3 1.3431 3 3s-1.3431 3-3 3h-.2c-2.651 0-4.8 2.149-4.8 4.8v.2c0 1.6569-1.3431 3-3 3s-3-1.3431-3-3v-.2c0-2.651-2.149-4.8-4.8-4.8h-.2c-1.6569 0-3-1.3431-3-3zm3-13c1.6569 0 3-1.3431 3-3s-1.3431-3-3-3h-.2c-2.651 0-4.8-2.149-4.8-4.8v-.2c0-2.7614 2.2385-5 5-5h8.0769c2.719 0 4.9231 2.2041 4.9231 4.9231 0 1.6993 1.3776 3.0769 3.0769 3.0769 2.719 0 4.9231 2.2041 4.9231 4.9231v4.0769c0 3.866 3.134 7 7 7h4c1.6569 0 3-1.3431 3-3s-1.3431-3-3-3h-.2c-2.651 0-4.8-2.149-4.8-4.8v-8c0-1.7673-1.4327-3.2-3.2-3.2-2.651 0-4.8-2.14903-4.8-4.8 0-1.76731-1.4327-3.2-3.2-3.2h-18.8c-4.41833 0-8 3.58173-8 8v19c0 1.6569 1.34314 3 3 3s3-1.3431 3-3v-.2c0-2.651 2.149-4.8 4.8-4.8zm8.2 0c-1.7673 0-3.2-1.4327-3.2-3.2v-.8c0-2.2091-1.7909-4-4-4h-1c-1.6569 0-3-1.3431-3-3s1.3431-3 3-3h8.3334c1.4728 0 2.6666 1.1939 2.6666 2.6667v.4102c0 2.719 2.2041 4.9231 4.9231 4.9231 1.6993 0 3.0769 1.3776 3.0769 3.0769v7.9231c0 1.6569-1.3431 3-3 3s-3-1.3431-3-3v-.2c0-2.651-2.149-4.8-4.8-4.8zm12.8 13c0-1.6569 1.3431-3 3-3h8c1.6569 0 3 1.3431 3 3s-1.3431 3-3 3h-8c-1.6569 0-3-1.3431-3-3zm27-5c-1.6569 0-3-1.3431-3-3s1.3431-3 3-3h.2c2.651 0 4.8-2.149 4.8-4.8v-7.2c0-3.3137-2.6863-6-6-6h-15c-1.6569 0-3-1.34314-3-3s1.3431-3 3-3h19c4.4183 0 8 3.58173 8 8v15c0 3.866-3.134 7-7 7zm-5-3c0-1.6569-1.3431-3-3-3s-3 1.3431-3 3v8c0 1.6569 1.3431 3 3 3s3-1.3431 3-3zm4.9091-5c-1.6066 0-2.9091-1.3024-2.9091-2.9091v-.0909c0-2.7614-2.2385-5-5-5s-5 2.2386-5 5v.0909c0 1.6067-1.3025 2.9091-2.9091 2.9091h-.0909c-1.6569 0-3-1.3431-3-3v-7c0-2.2091 1.7909-4 4-4h14c2.2091 0 4 1.7909 4 4v7c0 1.6569-1.3431 3-3 3zm-7.9091 0c-1.6569 0-3-1.3431-3-3s1.3431-3 3-3 3 1.3431 3 3-1.3431 3-3 3zm-8 18c1.6569 0 3 1.3431 3 3s-1.3431 3-3 3h-8c-1.6569 0-3-1.3431-3-3s1.3431-3 3-3zm-29-13c0-1.6569-1.3431-3-3-3s-3 1.3431-3 3 1.3431 3 3 3 3-1.3431 3-3zm-11 13c1.65686 0 3 1.3431 3 3s-1.34314 3-3 3-3-1.3431-3-3 1.34314-3 3-3zm53 3c0-1.6569 1.3431-3 3-3h8c1.6569 0 3 1.3431 3 3s-1.3431 3-3 3h-8c-1.6569 0-3-1.3431-3-3z" fill="#000" fill-rule="evenodd"/></svg>

<svg width="74" height="50" viewBox="0 0 74 50" fill="none" xmlns="http://www.w3.org/2000/svg">
<path fill-rule="evenodd" clip-rule="evenodd" d="M0 10V2C0 0.895432 0.895386 0 2 0H10H28.9091C31.7207 0 34 2.27928 34 5.09091C34 6.69756 35.3025 8 36.9091 8H37.0909C38.6975 8 40 6.69756 40 5.09091C40 2.27928 42.2793 0 45.0909 0H64C69.5228 0 74 4.47716 74 10V25.1111C74 30.0203 70.0203 34 65.1111 34H61C59.3431 34 58 35.3431 58 37C58 38.6569 59.3431 40 61 40H69C71.7615 40 74 42.2386 74 45C74 47.7614 71.7615 50 69 50H61.0909C58.2793 50 56 47.7207 56 44.9091C56 43.3024 54.6975 42 53.0909 42H52.9091C51.3025 42 50 43.3024 50 44.9091C50 47.7207 47.7207 50 44.9091 50H37.0909C34.2793 50 32 47.7207 32 44.9091C32 43.3024 30.6975 42 29.0909 42H28.9091C27.3025 42 26 43.3024 26 44.9091V45C26 47.7614 23.7615 50 21 50C18.2385 50 16 47.7614 16 45V44.9091C16 43.3024 14.6975 42 13.0909 42H12.9091C11.3025 42 10 43.3024 10 44.9091V45C10 47.7614 7.76147 50 5 50C2.23853 50 0 47.7614 0 45C0 42.2386 2.23853 40 5 40H5.09094C6.69751 40 8 38.6976 8 37.0909V37C8 35.3431 6.65686 34 5 34H4.80005C2.14905 34 0 31.851 0 29.2V10ZM10 37C10 35.3431 11.3431 34 13 34H13.2C15.851 34 18 31.851 18 29.2V29C18 27.3431 19.3431 26 21 26C22.6569 26 24 27.3431 24 29V29.2C24 31.851 26.149 34 28.8 34H29C30.6569 34 32 35.3431 32 37C32 38.6569 30.6569 40 29 40H28.8C26.149 40 24 42.149 24 44.8V45C24 46.6569 22.6569 48 21 48C19.3431 48 18 46.6569 18 45V44.8C18 42.149 15.851 40 13.2 40H13C11.3431 40 10 38.6569 10 37ZM13 24C14.6569 24 16 22.6569 16 21C16 19.3431 14.6569 18 13 18H12.8C10.149 18 8 15.851 8 13.2V13C8 10.2386 10.2385 8 13 8H21.0769C23.7959 8 26 10.2041 26 12.9231C26 14.6224 27.3776 16 29.0769 16C31.7959 16 34 18.2041 34 20.9231V25C34 28.866 37.134 32 41 32H45C46.6569 32 48 30.6569 48 29C48 27.3431 46.6569 26 45 26H44.8C42.149 26 40 23.851 40 21.2V13.2C40 11.4327 38.5673 10 36.8 10C34.149 10 32 7.85097 32 5.2C32 3.43269 30.5673 2 28.8 2H10C5.58167 2 2 5.58173 2 10V29C2 30.6569 3.34314 32 5 32C6.65686 32 8 30.6569 8 29V28.8C8 26.149 10.149 24 12.8 24H13ZM21.2 24C19.4327 24 18 22.5673 18 20.8V20C18 17.7909 16.2091 16 14 16H13C11.3431 16 10 14.6569 10 13C10 11.3431 11.3431 10 13 10H21.3334C22.8062 10 24 11.1939 24 12.6667V13.0769C24 15.7959 26.2041 18 28.9231 18C30.6224 18 32 19.3776 32 21.0769V29C32 30.6569 30.6569 32 29 32C27.3431 32 26 30.6569 26 29V28.8C26 26.149 23.851 24 21.2 24ZM34 37C34 35.3431 35.3431 34 37 34H45C46.6569 34 48 35.3431 48 37C48 38.6569 46.6569 40 45 40H37C35.3431 40 34 38.6569 34 37ZM61 32C59.3431 32 58 30.6569 58 29C58 27.3431 59.3431 26 61 26H61.2C63.851 26 66 23.851 66 21.2V14C66 10.6863 63.3137 8 60 8H45C43.3431 8 42 6.65686 42 5C42 3.34314 43.3431 2 45 2H64C68.4183 2 72 5.58173 72 10V25C72 28.866 68.866 32 65 32H61ZM56 29C56 27.3431 54.6569 26 53 26C51.3431 26 50 27.3431 50 29V37C50 38.6569 51.3431 40 53 40C54.6569 40 56 38.6569 56 37V29ZM60.9091 24C59.3025 24 58 22.6976 58 21.0909V21C58 18.2386 55.7615 16 53 16C50.2385 16 48 18.2386 48 21V21.0909C48 22.6976 46.6975 24 45.0909 24H45C43.3431 24 42 22.6569 42 21V14C42 11.7909 43.7909 10 46 10H60C62.2091 10 64 11.7909 64 14V21C64 22.6569 62.6569 24 61 24H60.9091ZM53 24C51.3431 24 50 22.6569 50 21C50 19.3431 51.3431 18 53 18C54.6569 18 56 19.3431 56 21C56 22.6569 54.6569 24 53 24ZM45 42C46.6569 42 48 43.3431 48 45C48 46.6569 46.6569 48 45 48H37C35.3431 48 34 46.6569 34 45C34 43.3431 35.3431 42 37 42H45ZM16 29C16 27.3431 14.6569 26 13 26C11.3431 26 10 27.3431 10 29C10 30.6569 11.3431 32 13 32C14.6569 32 16 30.6569 16 29ZM5 42C6.65686 42 8 43.3431 8 45C8 46.6569 6.65686 48 5 48C3.34314 48 2 46.6569 2 45C2 43.3431 3.34314 42 5 42ZM58 45C58 43.3431 59.3431 42 61 42H69C70.6569 42 72 43.3431 72 45C72 46.6569 70.6569 48 69 48H61C59.3431 48 58 46.6569 58 45Z" fill="black"/>
</svg>
